packages/kaspersky-hexa-ui-icons/src/iconsSVGs/24/ArrowUp.svg

<svg width="24" height="24" viewBox="0 0 24 24" fill="none" xmlns="http://www.w3.org/2000/svg">
<path d="M10.9999 19.9004C10.9999 20.4527 11.4476 20.9004 11.9999 20.9004C12.5522 20.9004 12.9999 20.4527 12.9999 19.9004L12.9999 6.51404L18.0448 11.5589C18.4353 11.9494 19.0685 11.9494 19.459 11.5589C19.8495 11.1684 19.8495 10.5352 19.459 10.1447L12.7154 3.40109C12.6377 3.32156 12.5469 3.25492 12.4464 3.2047C12.312 3.13753 12.1604 3.09973 11.9999 3.09973C11.8719 3.09973 11.7494 3.1238 11.6369 3.16767C11.5115 3.21642 11.394 3.29141 11.2927 3.39264L4.5407 10.1447C4.15017 10.5352 4.15017 11.1684 4.5407 11.5589C4.93122 11.9494 5.56439 11.9494 5.95491 11.5589L10.9999 6.51388L10.9999 19.9004Z" fill="black"/>
</svg>

<svg xmlns="http://www.w3.org/2000/svg" width="24" height="24" fill="none" viewBox="0 0 24 24"><path fill="#000" d="M10.9999 19.9004c0 .5523.4477 1 1 1s1-.4477 1-1V6.514l5.0449 5.0449c.3905.3905 1.0237.3905 1.4142 0s.3905-1.0237 0-1.4143l-6.7436-6.7435a.996.996 0 0 0-.7155-.3014.997.997 0 0 0-.7072.293l-6.752 6.7519c-.3905.3906-.3905 1.0237 0 1.4143s1.0237.3905 1.4142 0L11 6.5139z"/></svg>
